docs/img/road/train.svg

<svg width="16" height="20" viewBox="0 0 16 20" fill="none" xmlns="http://www.w3.org/2000/svg">
<path d="M4 15H12C12.5304 15 13.0391 14.7893 13.4142 14.4142C13.7893 14.0391 14 13.5304 14 13V11H2V13C2 13.5304 2.21071 14.0391 2.58579 14.4142C2.96086 14.7893 3.46957 15 4 15ZM12.813 16.917C13.0076 17.2191 13.1172 17.5681 13.1303 17.9272C13.1433 18.2864 13.0594 18.6424 12.8873 18.9579C12.7152 19.2733 12.4613 19.5366 12.1522 19.72C11.8431 19.9034 11.4904 20.0001 11.131 20H4.87C4.51063 20.0001 4.15787 19.9034 3.84881 19.72C3.53975 19.5366 3.28581 19.2733 3.1137 18.9579C2.94158 18.6424 2.85765 18.2864 2.87073 17.9272C2.8838 17.5681 2.9934 17.2191 3.188 16.917C2.28731 16.7301 1.47854 16.2385 0.897877 15.5251C0.317212 14.8116 0.000121582 13.9199 0 13L0 4C0 2.93913 0.421427 1.92172 1.17157 1.17157C1.92172 0.421427 2.93913 0 4 0L12 0C13.0609 0 14.0783 0.421427 14.8284 1.17157C15.5786 1.92172 16 2.93913 16 4V13C15.9999 13.9197 15.683 14.8114 15.1025 15.5248C14.522 16.2382 13.7135 16.7299 12.813 16.917ZM14 9V4C14 3.46957 13.7893 2.96086 13.4142 2.58579C13.0391 2.21071 12.5304 2 12 2H4C3.46957 2 2.96086 2.21071 2.58579 2.58579C2.21071 2.96086 2 3.46957 2 4V9H14ZM12 3C12.2652 3 12.5196 3.10536 12.7071 3.29289C12.8946 3.48043 13 3.73478 13 4V7C13 7.26522 12.8946 7.51957 12.7071 7.70711C12.5196 7.89464 12.2652 8 12 8C11.7348 8 11.4804 7.89464 11.2929 7.70711C11.1054 7.51957 11 7.26522 11 7V4C11 3.73478 11.1054 3.48043 11.2929 3.29289C11.4804 3.10536 11.7348 3 12 3ZM4 14C3.73478 14 3.48043 13.8946 3.29289 13.7071C3.10536 13.5196 3 13.2652 3 13C3 12.7348 3.10536 12.4804 3.29289 12.2929C3.48043 12.1054 3.73478 12 4 12C4.26522 12 4.51957 12.1054 4.70711 12.2929C4.89464 12.4804 5 12.7348 5 13C5 13.2652 4.89464 13.5196 4.70711 13.7071C4.51957 13.8946 4.26522 14 4 14ZM12 14C11.7348 14 11.4804 13.8946 11.2929 13.7071C11.1054 13.5196 11 13.2652 11 13C11 12.7348 11.1054 12.4804 11.2929 12.2929C11.4804 12.1054 11.7348 12 12 12C12.2652 12 12.5196 12.1054 12.7071 12.2929C12.8946 12.4804 13 12.7348 13 13C13 13.2652 12.8946 13.5196 12.7071 13.7071C12.5196 13.8946 12.2652 14 12 14ZM4.869 18H11.131L10.465 17H5.535L4.869 18Z" fill="black" fill-opacity="0.5"/>
</svg>

<svg width="16" height="20" fill="none" xmlns="http://www.w3.org/2000/svg"><path d="M4 15h8a2 2 0 0 0 2-2v-2H2v2a2 2 0 0 0 2 2zm8.813 1.917A2 2 0 0 1 11.131 20H4.87a2 2 0 0 1-1.682-3.083A4.001 4.001 0 0 1 0 13V4a4 4 0 0 1 4-4h8a4 4 0 0 1 4 4v9a4.001 4.001 0 0 1-3.187 3.917zM14 9V4a2 2 0 0 0-2-2H4a2 2 0 0 0-2 2v5h12zm-2-6a1 1 0 0 1 1 1v3a1 1 0 0 1-2 0V4a1 1 0 0 1 1-1zM4 14a1 1 0 1 1 0-2 1 1 0 0 1 0 2zm8 0a1 1 0 1 1 0-2 1 1 0 0 1 0 2zm-7.131 4h6.262l-.666-1h-4.93l-.666 1z" fill="#000" fill-opacity=".5"/></svg>
